assets/icons/sign_out.svg

<svg fill="none" height="24" viewBox="0 0 24 24" width="24" xmlns="http://www.w3.org/2000/svg"><path d="m12.59 13.0001-2.3 2.29c-.0937.093-.1681.2036-.2189.3254-.0508.1219-.0769.2526-.0769.3846s.0261.2627.0769.3846c.0508.1218.1252.2324.2189.3254.093.0937.2036.1681.3254.2189.1219.0508.2526.0769.3846.0769s.2627-.0261.3846-.0769c.1218-.0508.2324-.1252.3254-.2189l4-4c.091-.0951.1624-.2072.21-.33.1-.2435.1-.5165 0-.76-.0476-.1228-.119-.2349-.21-.33l-4-4c-.0932-.09324-.2039-.1672-.3258-.21766-.1218-.05046-.2523-.07643-.3842-.07643s-.2624.02597-.3842.07643c-.1219.05046-.2326.12442-.3258.21766s-.1672.20393-.2177.32575c-.0504.12182-.07639.25239-.07639.38425s.02599.26243.07639.38425c.0505.12182.1245.23251.2177.32575l2.3 2.29h-9.59c-.26522 0-.51957.1054-.70711.2929-.18753.1875-.29289.4419-.29289.7071s.10536.5196.29289.7071c.18754.1875.44189.2929.70711.2929zm-.59-11c-1.8689-.00834-3.70276.50721-5.29353 1.48819-1.59078.98098-2.87482 2.38812-3.70647 4.06181-.11935.23869-.13899.51502-.05459.7682.08439.25317.2659.46245.50459.5818s.51502.13899.7682.05459c.25317-.08439.46245-.2659.5818-.50459.63219-1.27668 1.59383-2.36138 2.78555-3.14201s2.57025-1.22887 3.99325-1.2984c1.4229-.06952 2.8386.24219 4.1007.90292 1.2622.66073 2.325 1.64652 3.0786 2.85549.7537 1.20896 1.1708 2.5972 1.2083 4.0214.0375 1.4241-.3059 2.8324-.9949 4.0794-.6889 1.247-1.6984 2.2874-2.924 3.0136-1.2256.7263-2.6229 1.1121-4.0475 1.1176-1.4911.0065-2.95385-.4076-4.22031-1.1948-1.26646-.7871-2.28534-1.9153-2.93969-3.2552-.11935-.2387-.32863-.4202-.5818-.5046-.25318-.0844-.52951-.0647-.7682.0546s-.4202.3286-.50459.5818c-.0844.2532-.06476.5295.05459.7682.79283 1.5955 1.99752 2.9502 3.48947 3.924 1.49195.9739 3.21698 1.5314 4.99663 1.615 1.7797.0836 3.5494-.3098 5.126-1.1395 1.5767-.8297 2.9031-2.0655 3.842-3.5797.9389-1.5141 1.4562-3.2517 1.4984-5.0328s-.3922-3.54121-1.2583-5.09817c-.866-1.55696-2.1324-2.85426-3.6679-3.75772-1.5356-.90347-3.2847-1.38027-5.0663-1.38111z" fill="#64748b" opacity=".6"/></svg>

<svg width="24" height="24" viewBox="0 0 24 24" fill="none" xmlns="http://www.w3.org/2000/svg">
<g opacity="0.6">
<path d="M12.59 13.0001L10.29 15.2901C10.1963 15.3831 10.1219 15.4937 10.0711 15.6155C10.0203 15.7374 9.9942 15.8681 9.9942 16.0001C9.9942 16.1321 10.0203 16.2628 10.0711 16.3847C10.1219 16.5065 10.1963 16.6171 10.29 16.7101C10.383 16.8038 10.4936 16.8782 10.6154 16.929C10.7373 16.9798 10.868 17.0059 11 17.0059C11.132 17.0059 11.2627 16.9798 11.3846 16.929C11.5064 16.8782 11.617 16.8038 11.71 16.7101L15.71 12.7101C15.801 12.615 15.8724 12.5029 15.92 12.3801C16.02 12.1366 16.02 11.8636 15.92 11.6201C15.8724 11.4973 15.801 11.3852 15.71 11.2901L11.71 7.2901C11.6168 7.19686 11.5061 7.1229 11.3842 7.07244C11.2624 7.02198 11.1319 6.99601 11 6.99601C10.8681 6.99601 10.7376 7.02198 10.6158 7.07244C10.4939 7.1229 10.3832 7.19686 10.29 7.2901C10.1968 7.38334 10.1228 7.49403 10.0723 7.61585C10.0219 7.73767 9.99591 7.86824 9.99591 8.0001C9.99591 8.13196 10.0219 8.26253 10.0723 8.38435C10.1228 8.50617 10.1968 8.61686 10.29 8.7101L12.59 11.0001H3C2.73478 11.0001 2.48043 11.1055 2.29289 11.293C2.10536 11.4805 2 11.7349 2 12.0001C2 12.2653 2.10536 12.5197 2.29289 12.7072C2.48043 12.8947 2.73478 13.0001 3 13.0001H12.59ZM12 2.0001C10.1311 1.99176 8.29724 2.50731 6.70647 3.48829C5.11569 4.46927 3.83165 5.87641 3 7.5501C2.88065 7.78879 2.86101 8.06512 2.94541 8.3183C3.0298 8.57147 3.21131 8.78075 3.45 8.9001C3.68869 9.01945 3.96502 9.03909 4.2182 8.95469C4.47137 8.8703 4.68065 8.68879 4.8 8.4501C5.43219 7.17342 6.39383 6.08872 7.58555 5.30809C8.77727 4.52746 10.1558 4.07922 11.5788 4.00969C13.0017 3.94017 14.4174 4.25188 15.6795 4.91261C16.9417 5.57334 18.0045 6.55913 18.7581 7.7681C19.5118 8.97706 19.9289 10.3653 19.9664 11.7895C20.0039 13.2136 19.6605 14.6219 18.9715 15.8689C18.2826 17.1159 17.2731 18.1563 16.0475 18.8825C14.8219 19.6088 13.4246 19.9946 12 20.0001C10.5089 20.0066 9.04615 19.5925 7.77969 18.8053C6.51323 18.0182 5.49435 16.89 4.84 15.5501C4.72065 15.3114 4.51137 15.1299 4.2582 15.0455C4.00502 14.9611 3.72869 14.9808 3.49 15.1001C3.25131 15.2194 3.0698 15.4287 2.98541 15.6819C2.90101 15.9351 2.92065 16.2114 3.04 16.4501C3.83283 18.0456 5.03752 19.4003 6.52947 20.3741C8.02142 21.348 9.74645 21.9055 11.5261 21.9891C13.3058 22.0727 15.0755 21.6793 16.6521 20.8496C18.2288 20.0199 19.5552 18.7841 20.4941 17.2699C21.433 15.7558 21.9503 14.0182 21.9925 12.2371C22.0347 10.456 21.6003 8.69589 20.7342 7.13893C19.8682 5.58197 18.6018 4.28467 17.0663 3.38121C15.5307 2.47774 13.7816 2.00094 12 2.0001Z" fill="#64748B"/>
</g>
</svg>
